math-norm-box.svg

<svg fill="currentColor" viewBox="0 0 24 24"><path d="M19 3H5c-1.1 0-2 .9-2 2v14c0 1.1.9 2 2 2h14c1.1 0 2-.9 2-2V5c0-1.1-.9-2-2-2m-9 15H8V6h2zm6 0h-2V6h2z"/></svg>

<svg  viewBox="0 0 24 24" fill="currentColor"><path  d="M19 3H5C3.9 3 3 3.9 3 5V19C3 20.1 3.9 21 5 21H19C20.1 21 21 20.1 21 19V5C21 3.9 20.1 3 19 3M10 18H8V6H10V18M16 18H14V6H16V18Z"/></svg>
